build/images/ico/woman.svg

<?xml version="1.0" encoding="UTF-8"?>
<svg width="23px" height="29px" viewBox="0 0 23 29" version="1.1" xmlns="http://www.w3.org/2000/svg" xmlns:xlink="http://www.w3.org/1999/xlink">
    <title>woman-silhouette-svgrepo-com@1x</title>
    <g id="1.-Design" stroke="none" stroke-width="1" fill="none" fill-rule="evenodd">
        <g id="Článek" transform="translate(-45, -587)" fill="#0B2A84" fill-rule="nonzero">
            <g id="Icons" transform="translate(16, 356)">
                <g id="woman-silhouette-svgrepo-com" transform="translate(29, 231)">
                    <path d="M22.7976014,24.3430645 C22.682928,23.9173535 22.5207798,23.5359355 22.3201013,23.1960918 C21.968914,22.5996094 21.5030533,22.1358359 20.9905779,21.7685781 C20.6053326,21.4924551 20.1932537,21.2685547 19.7757278,21.0738242 C19.3501748,20.8773379 18.9183721,20.7127402 18.5009036,20.5587344 C18.0681835,19.9551719 17.3819205,19.0294375 17.4007269,17.5364473 C17.4132836,16.5744629 17.4894268,16.3248477 17.5046784,13.542377 C17.7358026,13.3529707 17.9544275,13.1158164 18.1425492,12.820209 C18.3907024,12.4343164 18.5886861,11.9564395 18.7240007,11.3634688 C18.7616136,11.1988711 18.7795599,11.0360293 18.7795599,10.8766992 C18.7804773,10.5395176 18.6998046,10.218252 18.5645473,9.93329297 C18.4713752,9.73505078 18.3522295,9.55272461 18.21336,9.38812695 C18.2841135,9.12967578 18.3710359,8.78275195 18.446319,8.37567578 C18.5520479,7.81102539 18.6398304,7.134 18.6398304,6.42066797 C18.6398304,5.96136914 18.6030776,5.48700391 18.5090454,5.01705664 C18.4382919,4.66571484 18.3343404,4.31703516 18.1865264,3.98245898 C17.9661241,3.47977344 17.6453826,3.00716406 17.1992457,2.61775977 C16.7862495,2.25491992 16.2675243,1.96814844 15.6430703,1.78231055 C15.3788054,1.47078711 15.1055387,1.20525586 14.8242448,0.984017578 C14.3494396,0.608773438 13.8486035,0.358308594 13.3388802,0.206964844 C12.8299596,0.0548847656 12.3130693,0 11.7988164,0 C11.526467,0 11.2550351,0.0159160156 10.9835458,0.0407246094 C10.7290855,0.0619648437 10.5176851,0.0885292969 10.328646,0.120361328 C10.0455173,0.166410156 9.81261565,0.228318359 9.58682371,0.306199219 C9.36017172,0.383173828 9.14246426,0.472609375 8.85755819,0.584078125 C8.74827443,0.624802734 8.60579273,0.687617188 8.4347,0.773484375 C8.1345997,0.923921875 7.74935439,1.1434043 7.33544074,1.44784766 C6.71643369,1.90454102 6.03286552,2.54882812 5.49894614,3.42143359 C5.23376389,3.85864258 5.00441708,4.35067969 4.84496371,4.90292578 C4.68367557,5.45517187 4.59050342,6.06405859 4.59050342,6.72958594 C4.59050342,7.14555469 4.62725625,7.58451953 4.70517683,8.04381836 C4.70517683,8.07655664 4.70609422,8.1057832 4.70878904,8.13676562 C4.71240125,8.19340625 4.71773357,8.25446484 4.72404061,8.31552344 C4.73390252,8.40756445 4.74554187,8.50136133 4.75362634,8.58105469 C4.75809861,8.6217793 4.76171082,8.65717969 4.76348826,8.68374414 C4.76440564,8.6979043 4.76618308,8.70940234 4.76618308,8.71738867 L4.76618308,8.72713086 L4.76618308,8.72979297 L4.76618308,8.78292187 L4.8799391,9.28294531 C4.71687352,9.45904102 4.5753092,9.65643359 4.46516539,9.87500977 C4.31196172,10.1759414 4.22056702,10.5157852 4.22056702,10.8768691 C4.22056702,11.0361992 4.23851341,11.2007969 4.27612628,11.3636387 C4.3666036,11.7583672 4.48488922,12.1035352 4.6263962,12.4026543 C4.84049145,12.8540234 5.10928591,13.2062715 5.40938621,13.4682344 C5.43627713,13.493043 5.46494548,13.5177949 5.49361383,13.5399414 C5.50794801,16.3250742 5.58409115,16.5746328 5.59664789,17.5366738 C5.61545432,19.0305703 4.92833128,19.9553984 4.49647123,20.5598672 C4.30920956,20.6289121 4.12017045,20.6997129 3.93027129,20.7749316 C3.45546606,20.962582 2.97527117,21.1731719 2.51835498,21.440459 C2.17525215,21.640457 1.84464873,21.8705879 1.54093621,22.1458047 C1.08579746,22.5573555 0.693442405,23.0697832 0.422870505,23.706084 C0.150521166,24.3397793 -0.00090506613,25.0920234 4.07012339e-06,25.9796953 C4.07012339e-06,26.1044746 0.0259858475,26.2248359 0.0707658124,26.3346055 C0.111073515,26.4390508 0.167550167,26.5328477 0.233831395,26.6231328 C0.358366714,26.7912988 0.519597522,26.9417363 0.717638494,27.0869062 C1.06435354,27.3382773 1.5248246,27.5754316 2.12147033,27.7984824 C3.01466148,28.1312461 4.21334259,28.4286094 5.76235096,28.6480918 C7.31130198,28.8645723 9.21058027,29 11.4995761,29 C13.4848595,29 15.1762922,28.8982168 16.5998478,28.7292012 C17.6677439,28.6035156 18.5860486,28.438918 19.3654264,28.2512676 C19.9495727,28.109666 20.4566012,27.9556602 20.8910987,27.7919688 C21.2172299,27.6707012 21.502996,27.5432598 21.7511492,27.4123066 C21.9365761,27.3149414 22.1023365,27.2140645 22.2474557,27.111375 C22.4660806,26.9556133 22.6416456,26.7927715 22.7742654,26.6104453 C22.8405466,26.5201602 22.8961059,26.4227949 22.9364136,26.3165938 C22.9758612,26.2121484 23.0000041,26.0980176 23.0000041,25.9794121 C23.0000041,25.3723379 22.9293038,24.829834 22.7976014,24.3430645 Z M7.11423574,20.4950703 C7.28894067,20.3923809 7.45825595,20.282668 7.6150145,20.1587383 C7.78255235,20.0259727 7.93845084,19.8764414 8.07462551,19.709125 L11.1932261,21.1393008 L9.72752798,23.7952363 L7.11423574,20.4950703 Z M11.7450345,26.3432148 L10.1781371,24.3643047 L11.6590295,21.6791992 L13.1345322,24.3528066 L11.7450345,26.3432148 Z M13.56192,23.7412578 L12.1168631,21.124291 L14.9013054,19.6790488 C14.9631143,19.7569297 15.0276181,19.8312988 15.0975116,19.9011934 C15.3179138,20.1250938 15.5732342,20.3109316 15.8465009,20.4720176 L13.56192,23.7412578 Z M16.95373,12.7618691 C16.754829,12.9371152 16.545206,13.0512461 16.3248037,13.1300332 L16.1133459,13.2070078 L16.0389802,13.416748 C15.807856,14.0575234 15.5838415,14.5725566 15.3590243,14.9867695 C15.1341497,15.3991699 14.9110526,15.7089375 14.6781509,15.9523223 L14.5867562,16.0487812 L14.5580879,16.1762227 C14.4541364,16.648832 14.3502423,17.171002 14.3502423,17.7887246 C14.3502423,17.9798867 14.3601042,18.1781289 14.3825229,18.3878691 C14.4076363,18.6330098 14.4640557,18.8631406 14.5500607,19.075543 C14.5536729,19.0861914 14.5581452,19.0950273 14.5626175,19.1056191 L11.650085,20.6171875 L8.42311799,19.139207 C8.52253983,18.9090762 8.58973845,18.6577617 8.6184068,18.3878125 L8.6184068,18.3869062 C8.63990806,18.1780156 8.64976998,17.9797734 8.64976998,17.7895176 C8.64976998,17.1708887 8.54673592,16.6469629 8.44192443,16.1743535 L8.41325608,16.0469121 L8.32186137,15.9513027 C8.08981974,15.7088242 7.86586257,15.3990566 7.64098803,14.9848437 C7.41703086,14.5724434 7.19301637,14.0573535 6.9628095,13.4165781 L6.88752641,13.2068379 L6.67606865,13.1316191 C6.52911468,13.0776406 6.3876077,13.0076895 6.24959826,12.9174609 C6.04353015,12.7811836 5.84732395,12.5935332 5.66814675,12.314748 C5.48805217,12.0350566 5.32682136,11.6607187 5.21037052,11.1545215 L5.21037052,11.1545215 C5.18886926,11.0589121 5.17900734,10.9660215 5.17900734,10.8766426 C5.17900734,10.674832 5.22917696,10.4819141 5.3223491,10.2969824 C5.39940963,10.1447324 5.50599856,10.0005254 5.63770097,9.86951562 C5.85718586,10.1987676 6.03905789,10.458918 6.10533911,10.5244512 C6.32126914,10.7377598 6.35171493,10.2359238 6.24868087,9.67217969 C6.06055915,8.63582617 6.57028244,9.10486719 7.86397046,6.61975977 C10.4522066,7.18707227 14.974639,4.46917187 14.974639,4.46917187 C14.974639,4.46917187 15.0292809,5.70818555 15.8920262,6.84541602 C16.7099917,7.92249414 17.1758524,10.4535937 17.1758524,10.4535937 C17.1758524,10.4535937 17.2878309,10.2447031 17.4535914,9.96506836 C17.5530132,10.0801055 17.6354634,10.2040352 17.6954949,10.3332324 C17.7770277,10.5067227 17.8209476,10.6872363 17.8209476,10.8766426 C17.8209476,10.9651719 17.8110857,11.0589687 17.7895844,11.1545215 C17.7125239,11.4917031 17.6139621,11.7704883 17.5046784,12.002375 C17.3407527,12.3485625 17.1517136,12.586623 16.95373,12.7618691 Z" id="Shape"></path>
                    <path d="M11.395682,24.1112344 C11.395682,24.2882363 11.5408012,24.4315937 11.7199784,24.4315937 C11.8982382,24.4315937 12.0434147,24.2882363 12.0434147,24.1112344 C12.0434147,23.9359883 11.8982955,23.7926309 11.7199784,23.7926309 C11.5408012,23.7926309 11.395682,23.9359883 11.395682,24.1112344 Z" id="Path"></path>
                </g>
            </g>
        </g>
    </g>
</svg>

<svg width="23" height="29" viewBox="0 0 23 29" xmlns="http://www.w3.org/2000/svg"><g fill="#0B2A84" fill-rule="nonzero"><path d="M22.798 24.343a4.595 4.595 0 00-.478-1.147 4.674 4.674 0 00-1.33-1.427 7.548 7.548 0 00-1.214-.695 17.336 17.336 0 00-1.275-.515c-.433-.604-1.12-1.53-1.1-3.023.012-.962.088-1.211.104-3.994.23-.189.45-.426.638-.722.248-.386.446-.864.581-1.457a2.182 2.182 0 00-.16-1.43 2.486 2.486 0 00-.35-.545c.07-.258.157-.605.232-1.012.106-.565.194-1.242.194-1.955 0-.46-.037-.934-.131-1.404-.07-.351-.175-.7-.322-1.035a3.84 3.84 0 00-.988-1.364 4.103 4.103 0 00-1.556-.836 5.704 5.704 0 00-.819-.798A4.401 4.401 0 0013.34.207 5.343 5.343 0 0011.799 0c-.273 0-.544.016-.815.04a7.842 7.842 0 00-.655.08 4.35 4.35 0 00-.742.186c-.227.077-.445.167-.73.278-.109.04-.251.104-.422.19-.3.15-.686.37-1.1.674A7.042 7.042 0 005.5 3.42c-.265.438-.495.93-.654 1.482a6.49 6.49 0 00-.254 1.827c0 .416.036.855.114 1.314a4.644 4.644 0 00.019.272c.01.092.022.185.03.265l.01.103.002.033v.066l.114.5a2.585 2.585 0 00-.415.592 2.17 2.17 0 00-.189 1.489c.09.394.209.74.35 1.039a3.236 3.236 0 00.868 1.137c.014 2.785.09 3.035.103 3.997.018 1.494-.669 2.418-1.1 3.023-.188.069-.377.14-.567.215-.475.188-.955.398-1.412.665-.343.2-.673.43-.977.706a4.42 4.42 0 00-1.118 1.56C.15 24.34-.001 25.092 0 25.98a.94.94 0 00.07.355c.041.104.098.198.164.288.124.168.286.319.484.464.346.251.807.488 1.403.711.894.333 2.092.63 3.641.85 1.55.217 3.449.352 5.738.352 1.985 0 3.676-.102 5.1-.27a23.721 23.721 0 002.765-.479 13.12 13.12 0 001.526-.459c.326-.121.612-.249.86-.38a4.41 4.41 0 00.496-.3c.22-.156.395-.32.527-.502a1.24 1.24 0 00.162-.293.956.956 0 00.064-.338c0-.607-.07-1.15-.202-1.636zM7.114 20.495c.175-.103.344-.212.501-.336.168-.133.323-.283.46-.45l3.118 1.43-1.465 2.656-2.614-3.3zm4.631 5.848l-1.567-1.979 1.481-2.685 1.476 2.674-1.39 1.99zm1.817-2.602l-1.445-2.617L14.9 19.68c.062.078.127.152.197.222.22.224.475.41.749.571l-2.285 3.27zm3.392-10.98c-.2.176-.409.29-.63.369l-.21.077-.075.21a11.5 11.5 0 01-.68 1.57 4.463 4.463 0 01-.68.965l-.092.097-.029.127c-.104.473-.208.995-.208 1.613 0 .19.01.39.033.599.025.245.081.475.167.688l.013.03-2.913 1.511-3.227-1.478c.1-.23.167-.481.195-.751v-.001a5.82 5.82 0 00.032-.597c0-.62-.103-1.143-.208-1.616l-.029-.127-.091-.096a4.434 4.434 0 01-.681-.966 11.378 11.378 0 01-.678-1.568l-.075-.21-.212-.075a2.092 2.092 0 01-.426-.215 1.988 1.988 0 01-.582-.602c-.18-.28-.341-.654-.458-1.16a1.275 1.275 0 01.112-.858c.077-.152.184-.296.316-.427.22.329.401.589.467.654.216.214.247-.288.144-.852-.188-1.036.321-.567 1.615-3.052 2.588.567 7.11-2.15 7.11-2.15s.055 1.238.918 2.375c.818 1.077 1.284 3.609 1.284 3.609s.112-.21.278-.489c.099.115.181.239.241.368a1.264 1.264 0 01.095.822 4.15 4.15 0 01-.285.847 2.298 2.298 0 01-.551.76z"/><path d="M11.396 24.111c0 .177.145.32.324.32a.322.322 0 00.323-.32.322.322 0 00-.323-.318.322.322 0 00-.324.318z"/></g></svg>
